localPackages/DesignSystem/Sources/DesignSystem/Resources/Assets.xcassets/IconSet/ic-arrow-up-circle-line.imageset/ic-arrow-up-circle-line.svg

<svg width="24" height="24" viewBox="0 0 24 24" fill="none" xmlns="http://www.w3.org/2000/svg">
<g id="ic-arrow-up-circle-line">
<g id="Icon">
<path d="M14.5 8.05944L16.0768 9.63626C16.3697 9.92915 16.8445 9.92915 17.1374 9.63626C17.4303 9.34336 17.4303 8.86849 17.1374 8.5756L14.4924 5.93059C14.0824 5.52053 13.4175 5.52053 13.0075 5.93059L10.3625 8.5756C10.0696 8.86849 10.0696 9.34336 10.3625 9.63626C10.6554 9.92915 11.1302 9.92915 11.4231 9.63626L13 8.05944V14.2484C13 14.6626 13.3357 14.9984 13.75 14.9984C14.1642 14.9984 14.5 14.6626 14.5 14.2484V8.05944Z" fill="#0F0F0F"/>
<path fill-rule="evenodd" clip-rule="evenodd" d="M13.75 2.25C18.1682 2.25 21.75 5.83172 21.75 10.25C21.75 14.6683 18.1682 18.25 13.75 18.25C9.33169 18.25 5.74997 14.6683 5.74997 10.25C5.74997 5.83172 9.33169 2.25 13.75 2.25ZM13.75 3.75C17.3398 3.75 20.25 6.66015 20.25 10.25C20.25 13.8399 17.3398 16.75 13.75 16.75C10.1601 16.75 7.24997 13.8399 7.24997 10.25C7.24997 6.66015 10.1601 3.75 13.75 3.75Z" fill="#0F0F0F"/>
<path d="M3 2.25293C3.41421 2.25293 3.75 2.58872 3.75 3.00293V18.0029C3.75 19.2456 4.75736 20.2529 6 20.2529H21C21.4142 20.2529 21.75 20.5887 21.75 21.0029C21.75 21.4171 21.4142 21.7529 21 21.7529H6C3.92893 21.7529 2.25 20.074 2.25 18.0029V3.00293C2.25 2.58872 2.58579 2.25293 3 2.25293Z" fill="#0F0F0F"/>
</g>
</g>
</svg>

<svg xmlns="http://www.w3.org/2000/svg" width="24" height="24" viewBox="0 0 24 24">
  <g class="ic-arrow-up-circle-line">
    <g class="Icon">
      <path d="m14.5 8.06 1.577 1.576a.75.75 0 1 0 1.06-1.06L14.492 5.93a1.05 1.05 0 0 0-1.485 0l-2.644 2.645a.75.75 0 0 0 1.06 1.06L13 8.06v6.19a.75.75 0 1 0 1.5 0V8.06Z"/>
      <path fill-rule="evenodd" d="M13.75 2.25a8 8 0 1 1 0 16 8 8 0 0 1 0-16Zm0 1.5a6.5 6.5 0 1 1 0 13 6.5 6.5 0 0 1 0-13Z"/>
      <path d="M3 2.253a.75.75 0 0 1 .75.75v15A2.25 2.25 0 0 0 6 20.253h15a.75.75 0 0 1 0 1.5H6a3.75 3.75 0 0 1-3.75-3.75v-15a.75.75 0 0 1 .75-.75Z"/>
    </g>
  </g>
</svg>
